X: 40800
T: Tra Va Mee Aeg As Lajer
R: reel
M: 4/4
K: Edorian
e2|d2 e2 B2 AG|A2 AB E2 EF|GABG E2 ED|E5 e2|
d2 e2 B2 AG|AB=cd B2 BA|GABG E2 ED|E5 EF|
G2 A2 B2 AG|A2 Bc d2 A2|B2 BA Bc d2|e5 ge|
d2 de B2 AG|A2 AB E2 EF|GABG E2 ED|E5||

